X: 2
T: Roddy McDonald's Fancy
R: reel
M: 4/4
L: 1/8
K: Amaj
ec B2 cAAB | c2 cB ceaf | ec B2 cAAB | cffe f2 fa :|ecef a2 af | ecBc ecca | fef=g a2 ec | Bffe f2 fa |ecef a2 af | ecBc ceaf | ecB2 cAAB | cffe faec |B2 cB AAAB | c2 cB ceaf | ecBc AAAB |1 cffe f2 ec :|2 cffe f2 f=g|a2 ea aefa | efae faec | aeea feac | Bffe f2 f=g |a2 fa f2 fa | eAfe ceaf | ecBc AAAB | cffe f2fa |


Tune 3154	Setting 3154

